X:165
T:Handel’s Water Piece. RH.165
R:Air
C:Handel
S:Rev.R.Harrison’s MS,c1815,Cumbria
O:England
A:Temple Sowerby,Cumbria
Z:vmp.Simon Wilson. Review PJH, 2008.
M:C
L:1/8
Q:2/4=50
K:D
z2zAd2d2|d2zdf2f2|\
f2zfa2a2|a3g/f/ e/d/e/f/ ee|!
z2zDF2F2|F2zAd2d2|d2zdf2f2|f3e/d/ AAAA|!
A2z2a2f2|A2d2a2f2|A2d2affa|geeg fddf|!
e2z2fddf|eAAe dAFD|A2z2e>fe>f|g>ag>a f>gf>g|!
a3ba3b|a3g/f/ ef/g/ e>d|e2z2A>dA>d|\
e>fe>f d>ed>e|!
f3gf3g|f3e/d/ Ad GG|F2ze fede|fe/d/ eA dBFA|!
dF Aa(a4|a4)a>b ^ga|a2ze fe/d/ fA|fe/d/ eA f>f e>e|!
e2za e/f/e/f/ e/f/e/f/|g/a/g/a/ g/a/g/a/ f/g/f/g/ f/g/f/g/|\
a4aaaa|a3f/g/ ef/g/ e>d|!
d2zd AA Ad|e/f/e/f/ e/f/e/f/ d/e/d/e/ d/e/d/e/|\
(f4f)fff|f3e/d/ Ad AA|!
F2zfa2a2|a3bg2g2|g3af2f2|f3g ag/f/e2|!
d2d/e/f/g/ aaaa|a3b gggg|g3a ffff|f3g ag/f/e2|!
.d2z2.e2z2|.f2z2.e2z2|d8|]

